X:1744
T:Bonny at Morn
R:Other
O:England
M:3/4
A:Northumbria
K:Am
e3f ed|e2A2 Bc|d3c BA|G2A2B2|\
e3f ed|e2A2 Bc|d2B2G2|A6||
A2a2a2|A4Bc|B2g2g2|G4 B2|\
AG AB cd|e2 a2g2|eg3B2|A6 :|


